X: 26249
T: Meeting In The Park
R: mazurka
M: 3/4
K: Gmajor
|:GA|B2 BG DF|DE c2 d2|B2 de dG|(3BcB A2 GA|
B2 BG DF|DE c2 cd|ed B2 A2|G2 G2:|
|:Bc|d2 dG Bd|g2 f2 e2|ed BG cG|(3BcB A2 Bc|
d2 dG Bd|g2 f2 eg|ed B2 A2|G2 G2:|
|:AG|F2 dF dF|G2 dG dG|A^c e^c ge|(3gag f2 de|
fA eA dA|d2 ^c2 Bd|BA F2 E2|D2 D2:|

